X: 15931
T: Grandpa Tommy's Ceili Band
R: reel
M: 4/4
K: Gmajor
GB~B2 dB~B2|GABG ABGE|DEGA Bd~d2|ea~a2 gedB|
GB~B2 dB~B2|GABG ABGE|DEGA Bgfg|ecAF G4:|
~g3a gfed|Bd~d2 edB/c/d|g2af gedg|eaag agef|
~g3a gfed|Bd~d2 edBA|B2dB cBAG|FDEF G4:|

